X: 1
T: the Star of the County Down   [Am]
O: Trad
R: waltz
N: Also in 2/4 as a ballad.
N: There is a County Down in both Ireland and Scotland, and both claim this tune.
Z: 1997 by John Chambers <jc:trillian.mit.edu>
M: 3/4
L: 1/8
K: Am
EG \
|: "Am"A4 A2 | "F"A3 G A2 | "C"c4 c2 | "G"d4 cd | "Am"e3 d c2 |\
[1 "Am"A3 G E2 | "Em"G6- | G2 c2 B2 :|\
[2 "Dm"A4 A2 | "Am"A6- | A4 |]
ce |\
"C"g4 e2 | e3 d c2 | "G"d4 d2 | d4 cd |\
"C"e3 d c2 | "Am"A3 G E2 | "Em"G6- | G2 c2 B2 ||
"Am"A4 A2 | "F"A3 G A2 | "C"c4 c2 | "G"d4 cd |\
"Am"e3 d c2 | "Dm"A4 A2 | "Am"A6- | A4 |]
